X:1
T:The Rescued Lamb
T:The Rescued Lamb
T:Joel A. Erickson, 2008
T:J. A. E., 2008
T:PUBLIC DOMAIN
T:PUBLIC DOMAIN
C:Joel A. Erickson, 2008
Z:J. A. E., 2008
Z:PUBLIC DOMAIN
%%score 1 2
L:1/8
Q:1/4=100
M:4/4
K:F
V:1 treble nm="Treble"
V:2 bass nm="Bass"
V:1
 [CF]3/2 [CG]/ | [FA]2 [FA]3/2 [E^G]/ [FA]2 [CF]3/2 [C=G]/ | %2
w: 1.~Hear the|an- gels in heav- en re-|
w: 2.~Praise the|Lord for His pow- er to|
w: 3.~Let the|nine- ty and nine shel- tered|
 [DF]2 [DF]3/2 [B,D]/ [CF]2 [CF]3/2 [CG]/ | [FA]2 [FA]3/2 [F^G]/ [DA]2 [DF]3/2 [FA]/ | %4
w: joic- ing to- day, For a|lamb who was lost on the|
w: res- cue the blind, For the|lamb had been hurt, bru- tal|
w: sheep now re- joice, For the|lamb has come home at the|
 [CG]2 [CG]3/2 [C^F]/ [CG]2 | [CF]3/2 [CG]/ | [FA]2 [FA]3/2 [EG]/ [DF]2 [DF]3/2 [CE]/ | %7
w: moun- tains a- way|Has been|found by the Shep- herd Who|
w: snares had en- twined,|But the|Shep- herd has healed it, how|
w: sound of the voice|Of the|Shep- herd so dear, and has|
 [B,D]2 [DG]3/2 [DA]/ [GB]2 [Bd]2 | [Ac]2 [FA]2 [EG]3 [CF] | [CF]6 ||"^Refrain" [FA]3/2 [GB]/ | %11
w: sought for the stray; That|lamb is home to-|day.|Safe at|
w: lov- ing and kind! That|lamb is home to-|day.||
w: made Him their choice; That|lamb is home to-|day.||
 [Ac]6 [Bd]>[FA] | [Ac]6 [FA]>[GB] | [Ac]6 [GB]>[FA] | [EG]6 | [CF]3/2 [CG]/ | %16
w: home in the|fold, Free from|dan- ger and|cold;|While it|
w: |||||
w: |||||
 [FA]2 [FA]3/2 [EG]/ [DF]2 [DF]3/2 [CE]/ | [B,D]2 [DG]3/2 [DA]/ [GB]2 [Bd]2 | %18
w: fol- lows the Shep- herd and|does what it’s told, That|
w: ||
w: ||
 [Ac]2 [FA]2 [EG]3 [CF] | [CF]6 |] %20
w: lamb is home to|stay.|
w: ||
w: ||
V:2
 [F,A,]3/2 [F,A,]/ | [F,C]2 [C,C]3/2 [C,C]/ [F,C]2 [C,A,]3/2 [C,A,]/ | %2
w: ||
 [B,,B,]2 [B,,B,]3/2 [B,,B,]/ [F,A,]2 [F,A,]3/2 [F,A,]/ | %3
w: |
 [F,C]2 [C,F,]3/2 [C,F,]/ [D,F,]2 [D,A,]3/2 [D,F,]/ | [C,G,]2 [C,G,]3/2 [C,B,]/ [C,C]2 | %5
w: ||
 [F,A,]3/2 [G,B,]/ | [F,C]2 [F,C]3/2 [E,C]/ [D,A,]2 [D,A,]3/2 [C,A,]/ | %7
w: ||
 [B,,B,]2 [G,,G,]3/2 [A,,F,]/ [B,,G,]2 [B,,F,]2 | [C,A,]2 [D,D]2 [C,C]3 [C,B,] | [F,,F,A,]6 || z2 | %11
w: ||||
 [F,C]2 [C,C]2 [F,C]2 z2 | [F,A,]2 [C,A,]2 [F,A,]2 z2 | [F,C]2 [E,C]2 [D,C]2 [D,G,]>[D,G,] | %14
w: Safe at home|in the fold,|Free from dan- ger and|
 [C,C]2 [D,G,]2 [E,C]2 | [F,A,]3/2 [G,B,]/ | [F,C]2 [F,C]3/2 [E,C]/ [D,A,]2 [D,A,]3/2 [C,A,]/ | %17
w: cold, the cold;|||
 [B,,B,]2 [G,,G,]3/2 [A,,F,]/ [B,,G,]2 [B,,F,]2 | [C,A,]2 [D,D]2 [C,C]3 [C,B,] | [F,,F,A,]6 |] %20
w: |||

